lib/preview/nrk-logo-preview-nrk-yr-radio-with-bg.svg

<svg width="64" height="24" viewBox="0 0 64 24" fill="none" xmlns="http://www.w3.org/2000/svg">
<rect width="64" height="24" fill="#D9E9FF"/>
<path d="M6.00427 18V6.00109H9.94146V18H6.00427ZM15.2981 7.91078L17.5623 18H13.2534L10.5498 6.00109H12.9664C13.5206 5.9939 14.0583 6.18925 14.4788 6.55039C14.8999 6.89638 15.1892 7.3767 15.2981 7.91078ZM18.1538 18V6.00109H22.091V18H18.1538ZM25.0647 10.5641C24.6405 10.5682 24.223 10.4572 23.8568 10.243C23.4955 10.0341 23.1954 9.73396 22.9865 9.3726C22.7721 9.00633 22.661 8.58876 22.6652 8.16432C22.6604 7.74246 22.7715 7.32738 22.9865 6.96443C23.1976 6.60699 23.4974 6.31009 23.8568 6.10252C24.2231 5.8885 24.6405 5.77751 25.0647 5.78138C25.4865 5.77684 25.9014 5.88793 26.2645 6.10252C26.6203 6.31191 26.9169 6.60856 27.1263 6.96443C27.3411 7.32748 27.4522 7.74249 27.4476 8.16432C27.4515 8.58873 27.3405 9.00623 27.1263 9.3726C26.9191 9.73238 26.6222 10.0323 26.2645 10.243C25.9014 10.458 25.4862 10.5691 25.0642 10.5641H25.0647ZM28.0559 18V6.00109H31.9934V18H28.0559ZM36.978 12.5582C36.9891 12.5699 37.0735 12.7079 37.2314 12.9723C37.3893 13.2367 37.5949 13.5747 37.8482 13.9863C38.1017 14.3977 38.3692 14.8343 38.6506 15.296C38.932 15.7577 39.1969 16.1944 39.4451 16.6058C39.6924 17.0172 39.974 17.4819 40.29 18H35.9641C35.6936 17.5606 35.4484 17.1635 35.2287 16.8086C35.0091 16.4537 34.7756 16.0706 34.5281 15.6594C34.2801 15.2485 34.0349 14.8485 33.7925 14.4595C33.5501 14.0704 33.3418 13.7296 33.1675 13.4371C32.9925 13.1443 32.8713 12.9471 32.8039 12.8455C32.6368 12.5934 32.5379 12.3023 32.517 12.0005C32.5337 11.7109 32.6269 11.431 32.787 11.1891C32.8546 11.0764 32.9786 10.8764 33.1588 10.5891C33.339 10.3018 33.5503 9.96105 33.7925 9.56672C34.0347 9.17239 34.2799 8.7696 34.5281 8.35837C34.7763 7.94715 35.0098 7.56124 35.2287 7.20071C35.4488 6.84055 35.6939 6.44059 35.9641 6.00081H40.29L36.9439 11.4595C36.8404 11.6216 36.782 11.8083 36.7749 12.0005C36.786 12.2023 36.8565 12.3963 36.9774 12.5582H36.978Z" fill="#0A2343"/>
<circle cx="50.8615" cy="11.9999" r="8.57143" fill="white"/>
<path d="M54.4947 10.1449H53.2435C53.0561 10.1474 52.8771 10.2229 52.7446 10.3555C52.6121 10.488 52.5366 10.667 52.5342 10.8544V12.6686C52.7588 12.5691 52.9986 12.5082 53.2435 12.4883H54.623C54.7881 12.4964 54.9531 12.4712 55.1083 12.4142C55.2634 12.3572 55.4055 12.2696 55.5261 12.1565C55.639 12.0358 55.7265 11.8937 55.7835 11.7386C55.8405 11.5835 55.8658 11.4185 55.8579 11.2534C55.8657 11.1031 55.8384 10.953 55.7781 10.8151C55.7177 10.6772 55.626 10.5552 55.5103 10.459C55.2179 10.2406 54.8593 10.1297 54.4947 10.1449Z" fill="#00B8F1"/>
<path d="M50.8613 3.14282C48.5122 3.14282 46.2594 4.07598 44.5984 5.73699C42.9374 7.398 42.0043 9.65081 42.0043 11.9998C42.0043 14.3489 42.9374 16.6017 44.5984 18.2628C46.2594 19.9238 48.5122 20.857 50.8613 20.8571C53.2104 20.8571 55.4633 19.9239 57.1243 18.2629C58.7854 16.6018 59.7186 14.3489 59.7186 11.9998C59.7185 9.65078 58.7853 7.39796 57.1242 5.73696C55.4632 4.07596 53.2103 3.14282 50.8613 3.14282ZM50.1943 13.6047C50.188 15.4969 48.8314 16.0986 48.314 16.3994L47.4226 15.321L47.4433 15.3108L47.4226 15.2862C47.7093 15.1427 48.7742 14.5963 48.7742 13.7593V13.1275C48.6276 13.425 47.8688 13.7618 47.3529 13.7703H47.2959C46.5617 13.7714 45.8537 13.4977 45.3111 13.003C45.0255 12.7263 44.8009 12.3929 44.6516 12.0242C44.5024 11.6555 44.4318 11.2598 44.4445 10.8622V8.9543H45.8285V10.8622C45.8285 11.9722 46.5961 12.3765 47.3247 12.3867C47.9626 12.3778 48.7625 12.1013 48.7902 11.2463V8.95322H50.1929L50.1943 13.6047ZM56.2046 14.7793C56.281 14.8593 56.3769 14.9179 56.4828 14.9495C56.5888 14.981 56.7011 14.9845 56.8088 14.9594L56.8069 16.1066H55.9674C55.9577 16.1066 55.9483 16.1083 55.9397 16.1083C55.9312 16.1083 55.9201 16.1083 55.9101 16.1066H55.8792V16.1049C55.7156 16.0913 55.5617 16.0216 55.4437 15.9075L53.8103 13.9067H53.2448C53.0574 13.9092 52.8784 13.9848 52.7459 14.1174C52.6134 14.2499 52.5379 14.4291 52.5356 14.6165V16.1066H51.117V10.8542C51.1178 10.29 51.3421 9.74909 51.741 9.35C52.1398 8.9509 52.6806 8.72617 53.2448 8.72507H54.496C55.1915 8.70819 55.871 8.93437 56.4175 9.36465C56.6931 9.59468 56.9134 9.8836 57.0625 10.2101C57.2115 10.5366 57.2853 10.8924 57.2786 11.2513C57.2866 11.603 57.2246 11.9528 57.0962 12.2804C56.9677 12.6079 56.7755 12.9067 56.5306 13.1592C56.2225 13.4647 55.8406 13.6854 55.4221 13.7999C55.4221 13.7999 55.901 14.4542 56.2046 14.7782V14.7793Z" fill="#00B8F1"/>
</svg>

<svg xmlns="http://www.w3.org/2000/svg" viewBox="0 0 64 24"><path fill="#D9E9FF" d="M0 0h64v24H0z"/><path fill="#0A2343" d="M6.004 18V6.001h3.937V18H6.004Zm9.294-10.09L17.562 18h-4.309L10.55 6.001h2.416a2.276 2.276 0 0 1 1.513.55c.42.345.71.826.82 1.36ZM18.154 18V6.001h3.937V18h-3.937Zm6.91-7.436a2.383 2.383 0 0 1-2.4-2.4 2.303 2.303 0 0 1 .323-1.2 2.411 2.411 0 0 1 3.278-.861c.355.209.652.506.861.861.215.363.326.778.322 1.2a2.4 2.4 0 0 1-1.183 2.079 2.302 2.302 0 0 1-1.2.321ZM28.057 18V6.001h3.937V18h-3.937Zm8.922-5.442c.011.012.096.15.253.414.158.265.364.603.617 1.014a315.936 315.936 0 0 1 1.597 2.62c.247.411.529.876.845 1.394h-4.326c-.27-.44-.516-.837-.735-1.191-.22-.355-.453-.738-.7-1.15-.249-.41-.494-.81-.737-1.2-.242-.389-.45-.73-.625-1.022-.175-.293-.296-.49-.363-.591a1.748 1.748 0 0 1-.287-.845c.017-.29.11-.57.27-.812.068-.113.192-.313.372-.6s.391-.628.633-1.022c.243-.395.488-.797.736-1.209l.7-1.157.736-1.2h4.326l-3.346 5.458a1.08 1.08 0 0 0-.17.542c.012.201.082.395.203.557h.001Z"/><circle cx="50.861" cy="12" r="8.571" fill="#fff"/><path fill="#00B8F1" d="M54.495 10.145h-1.252a.719.719 0 0 0-.709.71v1.814c.225-.1.465-.16.71-.18h1.379a1.232 1.232 0 0 0 .903-.333 1.236 1.236 0 0 0 .332-.903.969.969 0 0 0-.348-.794 1.587 1.587 0 0 0-1.015-.314Z"/><path fill="#00B8F1" d="M50.861 3.143a8.857 8.857 0 1 0 0 17.714 8.857 8.857 0 0 0 0-17.714Zm-.667 10.462c-.006 1.892-1.363 2.494-1.88 2.794l-.891-1.078.02-.01-.02-.025c.286-.143 1.351-.69 1.351-1.527v-.632c-.146.298-.905.635-1.421.643h-.057a2.94 2.94 0 0 1-1.985-.767 2.854 2.854 0 0 1-.867-2.14V8.953h1.384v1.908c0 1.11.768 1.514 1.497 1.525.638-.01 1.438-.286 1.465-1.14V8.952h1.403l.001 4.652Zm6.01 1.174a.636.636 0 0 0 .605.18l-.002 1.148h-.84l-.027.001-.03-.001h-.03v-.002a.711.711 0 0 1-.436-.197l-1.634-2.001h-.565a.719.719 0 0 0-.71.71v1.49h-1.418v-5.253a2.132 2.132 0 0 1 2.128-2.129h1.251a2.989 2.989 0 0 1 1.921.64 2.4 2.4 0 0 1 .862 1.886 2.655 2.655 0 0 1-.748 1.908c-.309.306-.69.526-1.109.64 0 0 .479.655.783.98Z"/></svg>
